docs/local/img/sprites/exit.svg

<svg width="16" height="17" viewBox="0 0 16 17" xmlns="http://www.w3.org/2000/svg">
<path d="M7.99943 15.4178C7.99943 14.8208 7.51548 14.3368 6.91842 14.3368H2.16201V2.66201H6.91842C7.51548 2.66201 7.99943 2.17803 7.99943 1.581C7.99943 0.983978 7.51548 0.5 6.91842 0.5H1.94581C0.871167 0.5 0 1.37117 0 2.44581V14.553C0 15.6276 0.871167 16.4989 1.94581 16.4989H6.91842C7.51548 16.4989 7.99943 16.0149 7.99943 15.4178Z"/>
<path d="M10.5947 11.295L12.3089 9.5808H5.62202C5.025 9.5808 4.54102 9.09685 4.54102 8.49979C4.54102 7.90273 5.025 7.41879 5.62202 7.41879H12.3089L10.5946 5.70452C10.1725 5.28236 10.1725 4.59791 10.5946 4.17575C11.0168 3.75359 11.7012 3.75359 12.1234 4.17575L15.683 7.73539C15.8858 7.9381 15.9997 8.21311 15.9997 8.49979C15.9997 8.78647 15.8858 9.06148 15.683 9.26419L12.1234 12.8238C11.7013 13.2459 11.0168 13.2459 10.5947 12.8238C10.1725 12.4016 10.1725 11.7172 10.5947 11.295Z"/>
</svg>

<svg width="16" height="17" viewBox="0 0 16 17" xmlns="http://www.w3.org/2000/svg"><path d="M8 15.418c0-.597-.485-1.081-1.082-1.081H2.162V2.662h4.756a1.081 1.081 0 100-2.162H1.946A1.946 1.946 0 000 2.446v12.107c0 1.075.871 1.946 1.946 1.946h4.972c.597 0 1.081-.484 1.081-1.081z"/><path d="M10.595 11.295l1.714-1.714H5.622a1.081 1.081 0 110-2.162h6.687l-1.714-1.714a1.081 1.081 0 011.528-1.53l3.56 3.56a1.08 1.08 0 010 1.53l-3.56 3.559a1.081 1.081 0 01-1.528-1.529z"/></svg>
